X:1
T:Title
%%score { ( 1 3 4 ) | ( 2 5 ) }
L:1/8
M:4/4
K:Bb
V:1 treble nm="Grand Piano"
V:3 treble 
V:4 treble 
V:2 bass 
V:5 bass 
V:1
 z4 z2[Q:1/4=112] [DF]2 | [DB]3 [DB] [DB]2 [FA]2 | G6 G2 | F3 F F2 G2 | [DF]6 [DF]2 | %5
 [DB]3 [DB] [Fd]2 [Fc]2 | [GB]2 [FA]2 G2 G2 | F3 F B2 A2 |[M:3/4] [B,DB]6 |[M:1/4] z2 | %10
[M:4/4] [DB]6[K:bass][K:treble] z2 | [EG]6 z2 | [=Ec]6 z2 | [FA]6 z2 | [B,FB]3 [B,FB] [B,FB]2 c2 | %15
[M:9/8] d2 f- f [_Af]2- [Af] [Ge]2 |[M:4/4] d3 c B2 A2 |[M:3/4] [DB]6 |] %18
V:2
 z4 z2 [B,,B,]2 | [B,,F,]3 [B,,F,] [B,,B,]2 [D,B,]2 | [E,B,E]6 [E,B,E]2 | %3
 [F,B,D]3 [F,B,D] [F,A,E]2 [F,A,E]2 | [B,,B,]6 [B,,B,]2 | [B,,F,]3 [B,,F,] [B,,B,]2 [D,B,]2 | %6
 [E,B,]2 [E,B,]2 [E,B,E]2 [E,B,E]2 | [F,B,D]3 [F,B,D] [F,DF]2 [F,CE]2 |[M:3/4] B,,6 |[M:1/4] F2 | %10
[M:4/4] [B,,F,]>B,, B,,>B,, z z/[K:treble] D/ D>F | E,>E, E,>E, E,2 E2 | %12
 [C,G,]>C, C,>C, z z/[K:treble] =E/ E>G | F,>F, F,>F, F,2 E,2 | D,3 D, D,2[K:treble] [F,A,F]2 | %15
[M:9/8] [B,F]2 [B,DF]- [B,DF][K:bass] [D,B,]2- [D,B,] [E,B,]2 | %16
[M:4/4] [F,B,F]3 [F,EF] [F,DF]2 [F,CE]2 |[M:3/4] [B,,B,]6 |] %18
V:3
 x8 | x8 | x8 | x8 | x8 | x8 | x8 | x8 |[M:3/4] x6 |[M:1/4] x2 | %10
[M:4/4] z z/[K:bass] F,/ F,>F, z z/[K:treble] F/ B>A | B,>B, B,>B, B,2 G2 | %12
 z z/ G,/ G,>G, z z/ G/ c>B | C>C C>C C2 [A,F]2 | x8 |[M:9/8] x9 |[M:4/4] x8 |[M:3/4] x6 |] %18
V:4
 x8 | x8 | x8 | x8 | x8 | x8 | x8 | x8 |[M:3/4] x6 |[M:1/4] x2 | %10
[M:4/4] z4[K:bass] F,2[K:treble] z2 | x8 | z4 G,2 z2 | x8 | x8 |[M:9/8] x9 |[M:4/4] x8 | %17
[M:3/4] x6 |] %18
V:5
 x8 | x8 | x8 | x8 | x8 | x8 | x8 | x8 |[M:3/4] x6 |[M:1/4] x2 |[M:4/4] z4 B,,2[K:treble] z2 | x8 | %12
 z4 C,2[K:treble] z2 | x8 | x6[K:treble] x2 |[M:9/8] x4[K:bass] x5 |[M:4/4] x8 |[M:3/4] x6 |] %18

